X:1
T:Partition sans titre
C:Compositeur / Arrangeur
L:1/8
M:4/4
I:linebreak $
K:D
V:1 treble nm="Violon" snm="Vln."
V:1
"G" B2 A2 G2 F2 | EFGA B3 c |"D" d2 c2 B2 AG | FGAB A3 A |"G" B2 A2 G2 F2 | EFGA B3 c | %6
"D" d2 c2 B2 AG | FGAB A3 A ::"G" A B2 A B2 B2 | A B2 A B2 B2 |"A" B c2 B c2 c2 | B c2 B c2 c2 | %12
"D" c d2 c d2 d2 | c d2 c d2 d2 |"A" cdef ecBA |1 cdef ecBA :|2"G" gfeg"D" fedc |] %17
